X: 242
T: My Fairhaired Darling
B: O'Neill's 242
N: "With feeling"
N: "Collected by F.O'Neill"
Z: 1997 by John Chambers <jc@trillian.mit.edu>
M: 6/8
L: 1/8
K:G
G2F \
| D2G G2F | G3 AGF | G2A c2d | =f3 de^f \
| g2f d2c | A3 G3 | F3- F2G | A3 G2F |
| D2G G2F | G3 AGF | G2A c2d | =f3 de^f \
| g2f d2c | A2G F2A | G3- G3 | G3 z2 ||
|| c \
| d2c d2e | =f2 de^f | g2f d2e | =f3 de^f \
| g2f d2c | A3 G3 | F3- F2G | A3 G2F |
| D2G G2F | G3 AGF | G2A c2d | =f3 de^f \
| g2f d2c | A2G F2A | G3- G3 | G3 z2 ||


